X:433
T:Tennessee Hardwood
C:Aurbrey Haynie
N:Transcribed and Transcribed by Mike Stangeland
R:bluegrass
L:1/8
Q:1/4=210
M:4/4
K:C
z6 z/^G,/G,/A,/ | "Am"A,2 B,2 C2 D2 | DE EG ED C2 | "D"[F^C][^FD] [FD][FD] [F2D2] [D2=C2] | 
"Am"[^G^D][AE] [AE][AE] [A4E4] | A,2 B,2 C2 D2 | E2 ^F2 G^G A2 | "E"[BG]^G GB =G^F ED | 
[E2B,2] [B2E2B,2] [B4E4B,4] | "Am"A,2 B,2 CE DG | DE EG ED C2 | "D"(3[F^C][^FD][FD] (3[FD][FD][FD] [F2D2] [F2=C2] | 
"Am"(3[AE][AE][AE] [AE][AE] [A3E3]G | A2 (3BcB A2 G2 | "E"DE ED {E}DC A,G, | "Am"A,2 DE DC B,G, | 
A,2 [e2A2E2] A,G, ^G,C | [E2A,2] B,2 CE DG | DE EG ED C2 | "D"[F^C][^FD] [FD][FD] [F2D2] [D2=C2] | 
"Am"[^G^D][AE] [AE][AE] [A4E4] | A,2 B,2 C2 D2 | E2 ^F2 G^G A_B | {c}"E"dB AE GA GA | 
E2 [B2E2B,2] [B2E2B,2] [B2E2B,2] | "Am"A,2 B,2 C2 D2 | DE EG ED C2 | "D"[F^C][^FD] [FD][FD] [F2D2] [D2=C2] | 
"Am"[^G^D][AE] [AE][AE] [A2E2] E=G | A2 Ac A2 G2 | "E"{D}EE EC {D}^DC A,G, | "Am"A,2 DE DC B,G, | 
A,2 [e2A2E2] G,A, D2 | "G"GB d2 g2 e2 | {_B}"D"=Bd dd cB A2 | {^F}"Am"GA Ac AG EC | 
A,2 [a2c2E2] A,[ecE] [e2c2E2] | "G"DG Bd g2 e2 | {_B}"D"=Bd dd cB A2 | "E"^FG ^GB F=G ^GB | 
G^F ED E2 G,B, | "G"DG Bd g2 e2 | {_B}"D"=Bd dd cB A2 | "C"[c^F][cG] [cG][cG] G2 =F2 | 
{^D}EC zD EC zD | "Am"EC DC A,B, CD | "E"{^D}E2 ED =DE DC | "Am"[E2A,2] [e2A2E2] [E2A,2] [e2A2E2] | 
[E2A,2] [e2A2E2] [E2A,2] [e2A2E2] | 


